X:1
T: Captain Gillan
C:William Christie
R:Strathspey
Q: 128
K:A
M:4/4
L:1/16
|:CE3 E3F E3F A3B|ce3 Bc3 A3B AE3|F3G F3E F3A d3f|fedc dcBA F4 FA3|
CE3 E3F E3F A3B|ce3 Bc3 A3B AE3|F3G F3E F3A d3f|fedc dcBA F4 FA3|
ce3 e3f e3f a3e|fgaf ec3 A3B AE3|Df3 f3g a3g f3e|fefg agfe f4-f2ga|
fa3 ef3 ce3 Bc3|A3c Bc3 A3B AE3|Ff3 f3g a3g f3e|dcBA BdcB AF3 FA3:|
